!!!COM: Beethoven
!!!OTL: 24 Variationen uber Venni Amore von V. Righini
!!!Variation: Variation 4 a
**kern
*clefG2
*k[f#c#]
*M2/4
*D:
=65
*
[2A
.
.
=66
2A]
.
.
.
=67
[2d
.
.
.
=68
2d]
.
.
=69
4a
.
.
4dd
.
=70
4ee
.
.
4aa
.
=71
2ddd
.
.
.
.
=72
4aa
.
4r
.
*
=73
4r
([4ccc#
=74
8ccc#L]
8dddJ)
8ff#'L
8ff#'J
=75
4r
([4cc#
=76
4ff#)
.
4dd
*
.
.
=77
2A
*
=78
4d
.
4a
.
=79
4ee
.
.
4aa
.
=80
4ddd


